X:1
T:Quel fronte signorille
T:Quel fronte signorille
T:Guiaumme Dufay (c. 1432) (1397-1474)
T:© 2009 by Paul R Marchesano. May be freely copied for nonprofit use.
T:© 2009 by Paul R Marchesano. May be freely copied for nonprofit use.
C:Guiaumme Dufay (c. 1432)
C:(1397-1474)
Z:© 2009 by Paul R Marchesano. May be freely copied for nonprofit use.
%%score [ 1 2 3 ]
L:1/8
Q:1/4=152
M:3/2
K:C
V:1 treble nm="Alto" snm="A"
V:2 treble-8 nm="Tenor I (Contratenor)" snm="T-I"
V:3 treble-8 nm="Tenor II" snm="T-II"
V:1
 C4 E4 D4 | E2 F2 G6 F2 | E2 C2 F2 E2 D4 | C4 z4 G4 | G4 A4 B2 G2- | G2 A2 B2 c2 B2 A2 | c8 z4 | %7
w: 1.3.Quel fron- te|si- * gno- *|ril- * * * *|le in|pa- ra- di- *||so|
w: 2.Io- chi tra-|pas- * sa _|tu- * * * *|ti dei|al- triel vi- *||so|
 G6 _A2 G2 F_E | D2 G2 F2 D2 F_EDC | B,4 B,4 C4 | D2 E2 G2 ^F4 E2 | G8 z4 | G8 A4 | B8 G4- | %14
w: Scor- * * * *||ge l'a- ni-|ma _ _ mi- *|a,|Men- tre|chein _|
w: Con _ _ _ _|_ _ _ _ _ _ _ _|si dol- cear-|mo- * * ni- *|a|Chei cor|no- *|
 G4 c4 B2 A2- | A2 G2 B4 A4 | G8 z4 | c8 B4 | A4 G2 E2 F4 | E4 z4 F4 | E4 D8 | C4 z2 c2 B2 A2 | %22
w: _ su- o ba-|* * li- *|a|Stret- to|mi tie- * *|ne mi-|ran- *|do il _ _|
w: * stri _ s'en|_ _ vi- *|a|Pian pian|in su- * *|so va-||no in _ _|
 c4 B2 G2 A4 | _B4 A6 G2 | G12- | G12 |] %26
w: su- o _ bel|vi- * *|so.|_|
w: pa- * * ra-|di- * *|so.|_|
V:2
 c4 c4 G4 | c4 d8 | c8 G4 | g8 e4 | c2 B2 A4 G4 | e2 d4 g2 ^f2 ge | g8 z4 | _e6 d2 e2 c2 | G8 A4 | %9
w: 1.3.Quel fron- te|si- gno-|ril- *|le in|pa- * ra- di-||so|Scor- * * *|ge _|
w: 2.Io- chi tra-|pas- sa|tu- *|ti dei|al- * triel vi-||so|||
 z2 G4 G2 A4 | G4 c6 B2 | d8 z4 | e8 e4 | d4 g2 f2 d4 | e8 d4 | c4 g4 d4 | G8 z4 | F8 G4 | %18
w: l'a- ni- ma|mi- * *|a,|Men- tre|che _ _ in|suo ba-|li- * *|a|Stret- to|
w: |||Chei cor|no- * * stri|s'en _|vi- * *|a|Pian pian|
 A2 B2 c4 d4 | z2 A2 B2 c2 d4 | g6 a4 g2 | e4 c4 G4 | g2 fe d2 cB A4 | G4 ^f6 d2 | e4 d8- | d12 |] %26
w: mi _ tie- ne|mi- * * *|ran- * *|do _ il|su- * * o _ _ bel|vi- * *|so. _|_|
w: in _ su- so|va- * * *||no _ in|pa- * * * * * ra-|di- * *|so. _|_|
V:3
 c4 c4 B4 | A4 G8 | A6 c2 B2 A2 | c4 z4 c2 d2 | e4 f4 g4 | c2 f4 e2 d4 | c8 z4 | c12 | B8 c4 | %9
w: 1.3.Quel fron- te|si- gno-|ril- * * *|le in _|pa- ra- di-||so|Scor-|ge l'a-|
w: 2.Io- chi tra-|pas- sa|tu- * * *|ti dei _|al- triel vi-||so|||
 d8 c4 | B4 A8 | G8 z4 | c8 c4 | G8 G4 | c8 d4 | e6 g2 ^f2 e2 | g8 z4 | a8 g4 | f4 e4 d4 | %19
w: ni- ma|mi- *|a,|Men- tre|che in|suo ba-|li- * * *|a|Stret- to|mi tie- *|
w: |||Chei cor|no- stri|s'en _|vi- * * *|a|Pian pian|in su- *|
 e4 z4 a4 | g4 f6 e2 | g4 e2 c2 d4 | c4 d2 e4 f2 | g4 d8 | G12- | G12 |] %26
w: ne mi-|ran- * do|il su- o bel|vi- * * *||so.|_|
w: so va-|* * no|in pa- * ra-|di- * * *||so.|_|

